X:7725
T:Jack Layton. JB.68
M:2/4
L:1/8
Q:300
S:James Biggins MS, Leeds, 1779.
R:Air
O:England
A:Yorkshire
Z:vmp.Nick Barber & Chris Partington
K:G
GB dg|dBBg|dBBg|"tr"d2B2|GBdg|dBBg|aAAB|c2c2:|!
|:GBdB|ecdB|GBdB|"tr"d2B2|GBdB|ecdB|cAAB|"tr"c2c2:|!
gdBd|BGdB|gdBc|"tr"d2B2|gdGd|BGdc|aAAB|c2B2:|!
|:GBBB|BBBB|GBBB|"tr"d2B2|GBBB|B>BB>B|cAAB|c2B2:|]
